svgs/thin/taxi.svg

<svg xmlns="http://www.w3.org/2000/svg" viewBox="0 0 512 512"><!--! Font Awesome Pro 6.6.0 by @fontawesome - https://fontawesome.com License - https://fontawesome.com/license (Commercial License) Copyright 2024 Fonticons, Inc. --><path d="M176 40l0 24 160 0 0-24c0-13.3-10.7-24-24-24L200 16c-13.3 0-24 10.7-24 24zM160 64l0-24c0-22.1 17.9-40 40-40L312 0c22.1 0 40 17.9 40 40l0 24c32 .1 60.1 21.4 69 52.2l33 115.6c34.1 14.7 58 48.7 58 88.2l0 96 0 16 0 48c0 17.7-14.3 32-32 32l-32 0c-17.7 0-32-14.3-32-32l0-48L96 432l0 48c0 17.7-14.3 32-32 32l-32 0c-17.7 0-32-14.3-32-32l0-48 0-16 0-96c0-39.5 23.9-73.5 58-88.2L91 116.2C99.9 85.4 128 64.1 160 64zM416 416l16 0 64 0 0-96c0-44.2-35.8-80-80-80L96 240c-44.2 0-80 35.8-80 80l0 96 64 0 16 0 320 0zm16 16l0 48c0 8.8 7.2 16 16 16l32 0c8.8 0 16-7.2 16-16l0-48-64 0zM16 432l0 48c0 8.8 7.2 16 16 16l32 0c8.8 0 16-7.2 16-16l0-48-64 0zM160.3 80c-25 0-47 16.6-53.8 40.6L76.3 226c6.4-1.3 12.9-2 19.7-2l320 0c6.7 0 13.3 .7 19.7 2L405.6 120.6c-6.9-24-28.8-40.6-53.8-40.6L160.3 80zM96 336a16 16 0 1 0 0-32 16 16 0 1 0 0 32zm0-48a32 32 0 1 1 0 64 32 32 0 1 1 0-64zm336 32a16 16 0 1 0 -32 0 16 16 0 1 0 32 0zm-48 0a32 32 0 1 1 64 0 32 32 0 1 1 -64 0z"/></svg>

<svg xmlns="http://www.w3.org/2000/svg" viewBox="0 0 512 512"><!--! Font Awesome Pro 6.4.0 by @fontawesome - https://fontawesome.com License - https://fontawesome.com/license (Commercial License) Copyright 2023 Fonticons, Inc. --><path d="M176 40V64H336V40c0-13.3-10.7-24-24-24H200c-13.3 0-24 10.7-24 24zM160 64V40c0-22.1 17.9-40 40-40H312c22.1 0 40 17.9 40 40V64c32 .1 60.1 21.4 69 52.2l33 115.6c34.1 14.7 58 48.7 58 88.2v96 16 48c0 17.7-14.3 32-32 32H448c-17.7 0-32-14.3-32-32V432H96v48c0 17.7-14.3 32-32 32H32c-17.7 0-32-14.3-32-32V432 416 320c0-39.5 23.9-73.5 58-88.2L91 116.2C99.9 85.4 128 64.1 160 64zM416 416h16 64V320c0-44.2-35.8-80-80-80H96c-44.2 0-80 35.8-80 80v96H80 96 416zm16 16v48c0 8.8 7.2 16 16 16h32c8.8 0 16-7.2 16-16V432H432zM16 432v48c0 8.8 7.2 16 16 16H64c8.8 0 16-7.2 16-16V432H16zM160.3 80c-25 0-47 16.6-53.8 40.6L76.3 226c6.4-1.3 12.9-2 19.7-2H416c6.7 0 13.3 .7 19.7 2L405.6 120.6c-6.9-24-28.8-40.6-53.8-40.6H160.3zM96 336a16 16 0 1 0 0-32 16 16 0 1 0 0 32zm0-48a32 32 0 1 1 0 64 32 32 0 1 1 0-64zm336 32a16 16 0 1 0 -32 0 16 16 0 1 0 32 0zm-48 0a32 32 0 1 1 64 0 32 32 0 1 1 -64 0z"/></svg>
